assets/img/icons/motorbike.svg

<svg xmlns="http://www.w3.org/2000/svg" viewBox="0 0 793 552" width="109" height="76"><defs><clipPath clipPathUnits="userSpaceOnUse" id="cp1"><path d="M0 0h793v552H0z"/></clipPath></defs><style>.shp0{fill:#5e6968;stroke:#f9fafb;stroke-width:8}</style><g id="Page 1" clip-path="url(#cp1)"><path id="Path 1" class="shp0" d="M396.11 207.43c46.56-20.65 79.49-57.8 97.87-110.44L462.1 85.84c-15.18 43.45-41.95 73.94-79.6 90.67-95.72 42.54-232.28-14.02-233.64-14.58l-13.14 31.1c4.38 1.85 79.8 33.17 162.34 33.17 32.9 0 66.93-4.96 98.05-18.77z"/><path id="Path 2" fill-rule="evenodd" class="shp0" d="M771.7 380.2c-17.14 28.97-44.53 49.5-77.11 57.84a126.033 126.033 0 01-31.35 3.98c-57.48 0-107.6-38.95-121.91-94.69-11.41-44.56 2.6-89.74 32.9-120.2l-24.05-33.65c-39.11 34.97-74.11 90.46-86.49 178.61-.94 6.77-5.9 12.32-12.52 14.01l-101.03 25.92c-1.39.36-2.8.52-4.18.52-6.27 0-12.18-3.52-15.11-9.32-2.87-5.69-49.65-96.07-140.41-128.54l-2.19 24.53c45.28 10.25 82.17 45.04 94.1 91.56 17.23 67.26-23.46 136-90.71 153.25a125.822 125.822 0 01-31.36 3.98c-57.49 0-107.62-38.94-121.91-94.7-8.35-32.58-3.52-66.46 13.62-95.4 17.13-28.96 44.52-49.49 77.1-57.84 8.37-2.15 16.93-3.43 25.51-3.82l2.7-30.25c-39.28-6.71-85.23-2.15-137.86 22.11L5.31 257.42c58.58-26.97 110.09-32.31 154.42-25.15l.01-.08c2.65.38 265.29 40.65 360.79-56.9l.25.24c14.54-13.85 29.73-25.15 44.82-34.38L447.76 39.13l-42.31 10.86-8.4-32.72 50.88-13.05c5.39-1.3 11.07-.04 15.25 3.59l134.54 116.48c51.64-23.01 95.06-24.09 96.05-24.09l.4 33.77c-4.31.07-60.71 1.74-117.21 38.91l24.11 33.74c9.51-5.42 19.87-9.7 30.98-12.55 10.28-2.64 20.83-3.98 31.36-3.98 57.49 0 107.61 38.95 121.91 94.69 8.35 32.58 3.5 66.47-13.62 95.42zM467.3 246.93c-57.35 21.75-125.92 27.79-184.27 27.79-7.71 0-15.21-.1-22.51-.29 49.31 34.72 80.71 80.3 93.69 101.66l77.75-19.94c7.17-43.33 19.63-79.31 35.34-109.22zm-282.09 86.34l-8.04 90.28-33.64-3.01 8.04-90.24c-4.74.47-9.45 1.29-14.09 2.48-23.85 6.1-43.88 21.13-56.43 42.32-12.53 21.18-16.07 45.97-9.96 69.82 10.46 40.81 47.13 69.31 89.19 69.31 7.69 0 15.42-.99 22.96-2.92 49.22-12.62 79-62.94 66.39-112.16-8.34-32.5-33.33-57.19-64.42-65.88zm567.38-40.1c-10.46-40.79-47.13-69.29-89.18-69.29-7.7 0-15.43.99-22.97 2.92a91.746 91.746 0 00-19.59 7.51l51.07 71.49-27.48 19.62-50.21-70.28c-19.45 22.13-28.02 53.18-20.17 83.82 10.45 40.78 47.12 69.28 89.18 69.28 7.7 0 15.43-.99 22.97-2.92 23.84-6.1 43.87-21.15 56.42-42.32 12.54-21.18 16.07-45.98 9.96-69.83z"/></g></svg>

<svg xmlns="http://www.w3.org/2000/svg" viewBox="0 0 793 552" width="109" height="76">
	<defs>
		<clipPath clipPathUnits="userSpaceOnUse" id="cp1">
			<path d="M0 0L793 0L793 552L0 552Z" />
		</clipPath>
	</defs>
	<style>
		tspan { white-space:pre }
		.shp0 { fill: #5e6968;stroke: #f9fafb;stroke-width: 8 } 
	</style>
	<g id="Page 1" clip-path="url(#cp1)">
		<path id="Path 1" class="shp0" d="M396.11 207.43C442.67 186.78 475.6 149.63 493.98 96.99L462.1 85.84C446.92 129.29 420.15 159.78 382.5 176.51C286.78 219.05 150.22 162.49 148.86 161.93L135.72 193.03C140.1 194.88 215.52 226.2 298.06 226.2C330.96 226.2 364.99 221.24 396.11 207.43Z" />
		<path id="Path 2" fill-rule="evenodd" class="shp0" d="M771.7 380.2C754.56 409.17 727.17 429.7 694.59 438.04C684.32 440.68 673.77 442.02 663.24 442.02C605.76 442.02 555.64 403.07 541.33 347.33C529.92 302.77 543.93 257.59 574.23 227.13L550.18 193.48C511.07 228.45 476.07 283.94 463.69 372.09C462.75 378.86 457.79 384.41 451.17 386.1L350.14 412.02C348.75 412.38 347.34 412.54 345.96 412.54C339.69 412.54 333.78 409.02 330.85 403.22C327.98 397.53 281.2 307.15 190.44 274.68L188.25 299.21C233.53 309.46 270.42 344.25 282.35 390.77C299.58 458.03 258.89 526.77 191.64 544.02C181.35 546.67 170.8 548 160.28 548C102.79 548 52.66 509.06 38.37 453.3C30.02 420.72 34.85 386.84 51.99 357.9C69.12 328.94 96.51 308.41 129.09 300.06C137.46 297.91 146.02 296.63 154.6 296.24L157.3 265.99C118.02 259.28 72.07 263.84 19.44 288.1L5.31 257.42C63.89 230.45 115.4 225.11 159.73 232.27L159.74 232.19C162.39 232.57 425.03 272.84 520.53 175.29L520.78 175.53C535.32 161.68 550.51 150.38 565.6 141.15L447.76 39.13L405.45 49.99L397.05 17.27L447.93 4.22C453.32 2.92 459 4.18 463.18 7.81L597.72 124.29C649.36 101.28 692.78 100.2 693.77 100.2L694.17 133.97C689.86 134.04 633.46 135.71 576.96 172.88L601.07 206.62C610.58 201.2 620.94 196.92 632.05 194.07C642.33 191.43 652.88 190.09 663.41 190.09C720.9 190.09 771.02 229.04 785.32 284.78C793.67 317.36 788.82 351.25 771.7 380.2ZM467.3 246.93C409.95 268.68 341.38 274.72 283.03 274.72C275.32 274.72 267.82 274.62 260.52 274.43C309.83 309.15 341.23 354.73 354.21 376.09L431.96 356.15C439.13 312.82 451.59 276.84 467.3 246.93ZM185.21 333.27L177.17 423.55L143.53 420.54L151.57 330.3C146.83 330.77 142.12 331.59 137.48 332.78C113.63 338.88 93.6 353.91 81.05 375.1C68.52 396.28 64.98 421.07 71.09 444.92C81.55 485.73 118.22 514.23 160.28 514.23C167.97 514.23 175.7 513.24 183.24 511.31C232.46 498.69 262.24 448.37 249.63 399.15C241.29 366.65 216.3 341.96 185.21 333.27ZM752.59 293.17C742.13 252.38 705.46 223.88 663.41 223.88C655.71 223.88 647.98 224.87 640.44 226.8C633.5 228.58 626.96 231.13 620.85 234.31L671.92 305.8L644.44 325.42L594.23 255.14C574.78 277.27 566.21 308.32 574.06 338.96C584.51 379.74 621.18 408.24 663.24 408.24C670.94 408.24 678.67 407.25 686.21 405.32C710.05 399.22 730.08 384.17 742.63 363C755.17 341.82 758.7 317.02 752.59 293.17Z" />
	</g>
</svg>
